icon_installer/data/icons/scalable/actions/show-mailbox-symbolic.svg

<?xml version="1.0" encoding="UTF-8"?>
<svg height="16px" viewBox="0 0 16 16" width="16px" xmlns="http://www.w3.org/2000/svg">
    <g fill="#222222">
        <path d="m 2.1875 2 c -1.207031 0 -2.1875 0.800781 -2.1875 2 v 9.976562 c 0 1.203126 0.980469 2 2.1875 2 h 11.625 c 1.207031 0 2.1875 -1.015624 2.1875 -2.21875 v -9.539062 c 0 -1.199219 -0.980469 -2.21875 -2.1875 -2.21875 z m -0.1875 2 h 12 v 10 h -12 z m 0 0"/>
        <path d="m 1 8 v 1 h 3.625 c 0.023438 0.300781 -0.007812 0.605469 0.300781 1.222656 c 0.4375 0.871094 1.40625 1.777344 3.074219 1.777344 s 2.636719 -0.90625 3.074219 -1.777344 c 0.304687 -0.617187 0.277343 -0.921875 0.300781 -1.222656 h 2.625 v -1 h -3.5 v 0.5 s -0.007812 0.648438 -0.324219 1.277344 c -0.3125 0.628906 -0.84375 1.222656 -2.175781 1.222656 s -1.863281 -0.59375 -2.175781 -1.222656 c -0.316407 -0.628906 -0.324219 -1.277344 -0.324219 -1.277344 v -0.5 z m 0 0"/>
    </g>
</svg>

<svg xmlns="http://www.w3.org/2000/svg" width="16" height="16"><g fill="#222"><path d="M2.188 2C.98 2 0 2.8 0 4v9.977c0 1.203.98 2 2.188 2h11.624c1.208 0 2.188-1.016 2.188-2.22V4.22C16 3.019 15.02 2 13.812 2zM2 4h12v10H2zm0 0"/><path d="M1 8v1h3.625c.023.3-.008.605.3 1.223C5.364 11.093 6.333 12 8 12s2.637-.906 3.074-1.777c.305-.618.278-.922.301-1.223H14V8h-3.5v.5s-.008.648-.324 1.277C9.863 10.407 9.332 11 8 11s-1.863-.594-2.176-1.223C5.508 9.148 5.5 8.5 5.5 8.5V8zm0 0"/></g></svg>
